svgs/sharp-solid/gun.svg

<svg xmlns="http://www.w3.org/2000/svg" viewBox="0 0 576 512"><!--! Font Awesome Pro 7.1.0 by @fontawesome - https://fontawesome.com License - https://fontawesome.com/license (Commercial License) Copyright 2025 Fonticons, Inc. --><path fill="currentColor" d="M528 32l0 32 48 0 0 144-96 0-32 32-47.1 0-34.3 96.1-5.7 15.9-136.9 0-32 128-160 0 60-240-92 0 0-176 480 0 0-32 48 0zM327.1 304l22.9-64-97.9 0-16 64 91.1 0zM480 128l-416 0 0 32 416 0 0-32z"/></svg>

<svg xmlns="http://www.w3.org/2000/svg" viewBox="0 0 576 512"><!--! Font Awesome Pro 6.6.0 by @fontawesome - https://fontawesome.com License - https://fontawesome.com/license (Commercial License) Copyright 2024 Fonticons, Inc. --><path d="M528 32l0 24 0 8 48 0 0 144-96 0-32 32-47.1 0-34.3 96.1L360.9 352 344 352l-120 0L192 480 32 480 92 240 0 240 0 64l480 0 0-8 0-24 48 0zM327.1 304l22.9-64L252 240l-16 64 91.1 0zM480 128L64 128l0 32 416 0 0-32z"/></svg>
